X: 13125
T: First Day Of Autumn
R: slip jig
M: 9/8
K: Gmajor
"G"BAB DFA B2c|"G"BAB "D"DGF "G"G2A|
"G"Bcd edB "C"c2B|1 "D"AFD EGF "G"G2A:|2 "D"AFA BAF "G"G2d||
|:"Em"ede gfd "C"e2d|"Em"efg aba "C"g2f|
"Em"edB AGA "C"c2B|1 "D"AFA BAF "G"G2d:|2 "D"AFD EGF "G"G3||

